Rowaita-Dark/16x16/actions/edit-find-replace.svg

<?xml version="1.0" encoding="UTF-8" standalone="no"?>
<svg
   width="16"
   height="16"
   version="1.1"
   id="svg9"
   sodipodi:docname="edit-find-replace.svg"
   inkscape:version="1.2.1 (9c6d41e410, 2022-07-14)"
   xmlns:inkscape="http://www.inkscape.org/namespaces/inkscape"
   xmlns:sodipodi="http://sodipodi.sourceforge.net/DTD/sodipodi-0.dtd"
   xmlns="http://www.w3.org/2000/svg"
   xmlns:svg="http://www.w3.org/2000/svg">
  <sodipodi:namedview
     id="namedview11"
     pagecolor="#ffffff"
     bordercolor="#000000"
     borderopacity="0.25"
     inkscape:showpageshadow="2"
     inkscape:pageopacity="0.0"
     inkscape:pagecheckerboard="0"
     inkscape:deskcolor="#d1d1d1"
     showgrid="false"
     inkscape:zoom="16.046875"
     inkscape:cx="-4.9230769"
     inkscape:cy="6.8237585"
     inkscape:current-layer="svg9" />
  <defs
     id="defs3">
    <style
       id="current-color-scheme"
       type="text/css">
   .ColorScheme-Text { color:#444444; } .ColorScheme-Highlight { color:#4285f4; }
  </style>
  </defs>
  <g
     id="g242"
     transform="matrix(1.1428571,0,0,1.1428571,-1.1428568,-1.1428568)"
     style="fill:#dfdfdf;fill-opacity:1">
    <path
       style="fill:#dfdfdf;fill-opacity:1"
       class="ColorScheme-Text"
       d="M 6.5,1 A 5.5,5.5 0 0 0 1,6.5 5.5,5.5 0 0 0 2.1484,9.8516 L 3.5781,8.4219 A 3.5,3.5 0 0 1 3,6.5 3.5,3.5 0 0 1 6.5,3 3.5,3.5 0 0 1 8.4219,3.5781 L 9.8535,2.1465 A 5.5,5.5 0 0 0 6.5,1 Z m 5.18,7.3203 -3.3655,3.3657 a 5.5,5.5 0 0 0 1.3027,-0.655 l 3.6618,3.662 A 1,1 0 0 0 14,15 1,1 0 0 0 15,14 1,1 0 0 0 14.697,13.283 l -3.67,-3.6697 a 5.5,5.5 0 0 0 0.653,-1.293 z"
       id="path5" />
    <path
       style="fill:#dfdfdf;fill-opacity:1"
       class="ColorScheme-Text"
       d="M 2,11.32 V 14 H 4.67 L 11.42,7.25 8.75,4.57 Z M 13.79,4.89 c 0.28,-0.28 0.28,-0.73 0,-1.01 L 12.12,2.21 c -0.29,-0.28 -0.73,-0.28 -1.01,0 l -1.4,1.4 2.67,2.68 z"
       id="path7" />
  </g>
</svg>

<svg xmlns="http://www.w3.org/2000/svg" width="16" height="16" version="1.1">
 <defs>
  <style id="current-color-scheme" type="text/css">
   .ColorScheme-Text { color:#dfdfdf; } .ColorScheme-Highlight { color:#4285f4; }
  </style>
 </defs>
 <path style="fill:currentColor" class="ColorScheme-Text" d="M 6.5,1 A 5.5,5.5 0 0 0 1,6.5 5.5,5.5 0 0 0 2.1484,9.8516 L 3.5781,8.4219 A 3.5,3.5 0 0 1 3,6.5 3.5,3.5 0 0 1 6.5,3 3.5,3.5 0 0 1 8.4219,3.5781 L 9.8535,2.1465 A 5.5,5.5 0 0 0 6.5,1 Z M 11.68,8.3203 8.3145,11.686 A 5.5,5.5 0 0 0 9.6172,11.031 L 13.279,14.693 A 1,1 0 0 0 14,15 1,1 0 0 0 15,14 1,1 0 0 0 14.697,13.283 L 11.027,9.6133 A 5.5,5.5 0 0 0 11.68,8.3203 Z"/>
 <path style="fill:currentColor" class="ColorScheme-Text" d="M 2,11.32 V 14 H 4.67 L 11.42,7.25 8.75,4.57 Z M 13.79,4.89 C 14.07,4.61 14.07,4.16 13.79,3.88 L 12.12,2.21 C 11.83,1.93 11.39,1.93 11.11,2.21 L 9.71,3.61 12.38,6.29 Z"/>
</svg>
